!!!!SEGMENT: pl-cz--iii-112--003_dankowski-adalbert--vesperae-d-dominus.krn
!!!cenid: 18xx:800
!!!COM: Dankowski, Adalbert
!!!COM-rismid: pe30000793
!!!CDT: ~1760-~1836
!!!CNT: Polish
!!!OPR: Vesperae D
!!!OTL: Dominus
!!!OMV: 003
!!!PDT:
!!!AGN: Sacred; Vespers
!!!SMS-siglum: PL-CZ
!!!SMS-shelfmark: III-112
!!!SMS-shelfwork: 001-003 M
!!!SMS-variant:
!!!SMS-altvar:
!!!NIFC-rismid: 300033579
!!!URL-scan: http://repozytorium.nifc.pl/skany/pl-cz-nut--iii-112
!!!ONB-nifc: UWAGA: części Vesperae: Dixit Dominus, Tecum principium, Dominus, Gloria patri, Nunc dimittis – Magnificat, Et misericordia, Gloria patri
!!!key: C
**kern	**fba	**dynam	**kern	**dynam	**kern	**dynam	**kern	**text	**text	**kern	**kern	**kern	**kern	**kern
*part9	*part9	*part9	*part8	*part8	*part7	*part7	*part6	*part6	*part6	*part5	*part4	*part3	*part2	*part1
*staff9	*	*	*staff8	*	*staff7	*	*staff6	*staff6	*staff6	*staff5	*staff4	*staff3	*staff2	*staff1
*I"Organo	*	*	*I"Violino Secondo	*	*I"Violino Primo	*	*I"Basso	*	*	*I"Tenore	*I"Alto	*I"Canto	*I"Clarino Secondo	*I"Clarino Primo Ex D:
*I'Org.	*	*	*I'Vn II	*	*I'Vn I	*	*I'B.	*	*	*I'T.	*I'A.	*I'C.	*I'Cor II	*I'Cor I
*ICklav	*	*	*ICstr	*	*ICstr	*	*ICvox	*	*	*ICvox	*ICvox	*ICvox	*ICbras	*ICbras
*clefF4	*	*	*clefG2	*	*clefG2	*	*clefF4	*	*	*clefGv2	*clefG2	*clefG2	*clefG2	*clefG2
*	*	*	*	*	*	*	*	*	*	*	*	*	*ITrd-1c-2	*ITrd-1c-2
*k[]	*	*	*k[]	*	*k[]	*	*k[]	*	*	*k[]	*k[]	*k[]	*k[]	*k[]
*C:	*	*	*C:	*	*C:	*	*C:	*	*	*C:	*C:	*C:	*C:	*C:
*M3/4	*	*	*M3/4	*	*M3/4	*	*M3/4	*	*	*M3/4	*M3/4	*M3/4	*M3/4	*M3/4
=1	=1	=1	=1	=1	=1	=1	=1	=1	=1	=1	=1	=1	=1	=1
!LO:TX:a:t=allo Solo	!	!	!LO:TX:a:t=Solo	!	!LO:TX:a:t=Solo	!	!LO:TX:a:t= Solo.	!	!	!LO:TX:b:i:t=Dominus Tacet	!LO:TX:b:i:t=Dominus Tacet	!LO:TX:b:i:t=Dominus Tacet	!LO:TX:b:i:t=Dominus Tacet	!LO:TX:b:i:t=Dominus Tacet
!	!	!	!LO:TX:rj:a:t=allo	!	!LO:TX:rj:a:t=allo	!	!LO:TX:rj:a:t=allo	!	!	!	!	!	!	!
4C/	.	.	4c/	.	4c/	.	0.r	.	.	2.ryy	2.ryy	2.ryy	2.ryy	2.ryy
4E\	.	.	4e/	.	4e/	.	.	.	.	.	.	.	.	.
4G\	.	.	4g/	.	4g/	.	.	.	.	.	.	.	.	.
=2	=2	=2	=2	=2	=2	=2	=2	=2	=2	=2	=2	=2	=2	=2
!LO:TX:a:t=P:problem:mixed beam	!	!	!	!	!	!	!	!	!	!	!	!	!	!
8c\L	.	.	16cc\LL	f	16cc\LL	.	.	.	.	2.ryy	2.ryy	2.ryy	2.ryy	2.ryy
.	.	.	16dd\	.	16dd\	.	.	.	.	.	.	.	.	.
8C/	.	.	16ee\	.	16ee\	.	.	.	.	.	.	.	.	.
.	.	.	16dd\JJ	.	16dd\JJ	.	.	.	.	.	.	.	.	.
8C/	.	.	8cc/L	.	8cc/L	.	.	.	.	.	.	.	.	.
8C/	.	.	8g/	.	8g/	.	.	.	.	.	.	.	.	.
8C/	.	.	8e/	.	8e/	.	.	.	.	.	.	.	.	.
8C/J	.	.	8c/J	.	8c/J	.	.	.	.	.	.	.	.	.
=3	=3	=3	=3	=3	=3	=3	=3	=3	=3	=3	=3	=3	=3	=3
*tremolo	*	*	*	*	*	*	*	*	*	*	*	*	*	*
8C/L	6 4	.	16f/LL 16A/	.	8a/L	.	.	.	.	2.ryy	2.ryy	2.ryy	2.ryy	2.ryy
.	.	.	16f/ 16A/	.	.	.	.	.	.	.	.	.	.	.
8C/	.	.	16f/ 16A/	.	8f/J	.	.	.	.	.	.	.	.	.
.	.	.	16f/JJ 16A/	.	.	.	.	.	.	.	.	.	.	.
*	*	*	*tremolo	*	*	*	*	*	*	*	*	*	*	*
8C/	.	.	16f/ 16A/LL	.	8cc\L	.	.	.	.	.	.	.	.	.
.	.	.	16f/ 16A/	.	.	.	.	.	.	.	.	.	.	.
8C/	.	.	16f/ 16A/	.	8a\	.	.	.	.	.	.	.	.	.
.	.	.	16f/ 16A/JJ	.	.	.	.	.	.	.	.	.	.	.
8C/	.	.	16f/ 16A/LL	.	8ff\	.	.	.	.	.	.	.	.	.
.	.	.	16f/ 16A/	.	.	.	.	.	.	.	.	.	.	.
8C/J	.	.	16f/ 16A/	.	8a\J	.	.	.	.	.	.	.	.	.
.	.	.	16f/ 16A/JJ	.	.	.	.	.	.	.	.	.	.	.
*Xtremolo	*	*	*	*	*	*	*	*	*	*	*	*	*	*
=4	=4	=4	=4	=4	=4	=4	=4	=4	=4	=4	=4	=4	=4	=4
8C/L	_ _	.	16f/ 16A/LL	.	8a/L	.	.	.	.	2.ryy	2.ryy	2.ryy	2.ryy	2.ryy
.	.	.	16f/ 16A/	.	.	.	.	.	.	.	.	.	.	.
8C/	x	.	16f/ 16A/	.	16g/L	.	.	.	.	.	.	.	.	.
.	.	.	16f/ 16A/JJ	.	16a/JJ	.	.	.	.	.	.	.	.	.
8C/	5 3	.	16e/ 16G/LL	.	4g/	.	.	.	.	.	.	.	.	.
.	.	.	16e/ 16G/	.	.	.	.	.	.	.	.	.	.	.
8C/	.	.	16e/ 16G/	.	.	.	.	.	.	.	.	.	.	.
.	.	.	16e/ 16G/JJ	.	.	.	.	.	.	.	.	.	.	.
8C/	.	.	16e/ 16G/LL	.	8r	.	.	.	.	.	.	.	.	.
.	.	.	16e/ 16G/	.	.	.	.	.	.	.	.	.	.	.
8C/J	.	.	16e/ 16G/	.	8g/	.	.	.	.	.	.	.	.	.
.	.	.	16e/ 16G/JJ	.	.	.	.	.	.	.	.	.	.	.
=5	=5	=5	=5	=5	=5	=5	=5	=5	=5	=5	=5	=5	=5	=5
*tremolo	*	*	*	*	*	*	*	*	*	*	*	*	*	*
8BB/L	6 5	.	16d/ 16G/LL	.	16g/LL	.	0.r	.	.	2.ryy	2.ryy	2.ryy	2.ryy	2.ryy
.	.	.	16d/ 16G/	.	16f/	.	.	.	.	.	.	.	.	.
8BB/	.	.	16d/ 16G/	.	16e/	.	.	.	.	.	.	.	.	.
.	.	.	16d/ 16G/JJ	.	16f/JJ	.	.	.	.	.	.	.	.	.
!	!	!	!	!	!LO:LB:g=original	!	!	!	!	!	!	!	!	!
8BB/	.	.	16d/ 16G/LL	.	8dd/L	.	.	.	.	.	.	.	.	.
.	.	.	16d/ 16G/	.	.	.	.	.	.	.	.	.	.	.
8BB/	.	.	16d/ 16G/	.	8b/	.	.	.	.	.	.	.	.	.
.	.	.	16d/ 16G/JJ	.	.	.	.	.	.	.	.	.	.	.
8BB/	.	.	16d/ 16G/LL	.	8g/	.	.	.	.	.	.	.	.	.
.	.	.	16d/ 16G/	.	.	.	.	.	.	.	.	.	.	.
8BB/J	.	.	16d/ 16G/	.	8f/J	.	.	.	.	.	.	.	.	.
.	.	.	16d/ 16G/JJ	.	.	.	.	.	.	.	.	.	.	.
*	*	*	*Xtremolo	*	*	*	*	*	*	*	*	*	*	*
!	!	!	!LO:LB:g=original	!	!	!	!	!	!	!	!	!	!	!
=6	=6	=6	=6	=6	=6	=6	=6	=6	=6	=6	=6	=6	=6	=6
8C/L	.	.	16e/LL 16G/	.	16e/LL	.	.	.	.	2.ryy	2.ryy	2.ryy	2.ryy	2.ryy
.	.	.	16e/ 16G/	.	16d/	.	.	.	.	.	.	.	.	.
8C/	.	.	16e/ 16G/	.	16e/	.	.	.	.	.	.	.	.	.
.	.	.	16e/JJ 16G/	.	16f/JJ	.	.	.	.	.	.	.	.	.
*	*	*	*tremolo	*	*	*	*	*	*	*	*	*	*	*
8C/	.	.	16e/ 16G/LL	.	8e/L	.	.	.	.	.	.	.	.	.
.	.	.	16e/ 16G/	.	.	.	.	.	.	.	.	.	.	.
8C/	.	.	16e/ 16G/	.	8g/J	.	.	.	.	.	.	.	.	.
.	.	.	16e/ 16G/JJ	.	.	.	.	.	.	.	.	.	.	.
8C/	.	.	16e/ 16G/LL	.	8cc\L	.	.	.	.	.	.	.	.	.
.	.	.	16e/ 16G/	.	.	.	.	.	.	.	.	.	.	.
8C/J	.	.	16e/ 16G/	.	8ee\J	.	.	.	.	.	.	.	.	.
.	.	.	16e/ 16G/JJ	.	.	.	.	.	.	.	.	.	.	.
*Xtremolo	*	*	*Xtremolo	*	*	*	*	*	*	*	*	*	*	*
!LO:LB:g=original	!	!	!	!	!	!	!	!	!	!	!	!	!	!
=7	=7	=7	=7	=7	=7	=7	=7	=7	=7	=7	=7	=7	=7	=7
(8G\L	.	.	8g/L	.	8gg\L	.	.	.	.	2.ryy	2.ryy	2.ryy	2.ryy	2.ryy
16A\L	.	.	16a/L	.	16aa\L	.	.	.	.	.	.	.	.	.
16G\JJ)	.	.	16g/JJ	.	16gg\JJ	.	.	.	.	.	.	.	.	.
!LO:TX:a:t=|	!	!	!	!	!	!	!	!	!	!	!	!	!	!
8F\L	.	.	8f/L	.	8ff\L	.	.	.	.	.	.	.	.	.
!LO:TX:a:t=|	!	!	!	!	!	!	!	!	!	!	!	!	!	!
8E\	.	.	8e/	.	8ee\	.	.	.	.	.	.	.	.	.
!LO:TX:a:t=|	!	!	!	!	!	!	!	!	!	!	!	!	!	!
8D\	.	.	8d/	.	8dd\	.	.	.	.	.	.	.	.	.
!LO:TX:a:t=|	!	!	!	!	!	!	!	!	!	!	!	!	!	!
8C\J	.	.	8c/J	.	8cc\J	.	.	.	.	.	.	.	.	.
=8	=8	=8	=8	=8	=8	=8	=8	=8	=8	=8	=8	=8	=8	=8
8BB/L	.	.	8B/L	.	8b/L	.	.	.	.	2.ryy	2.ryy	2.ryy	2.ryy	2.ryy
16AA/L	.	.	16A/L	.	16a/L	.	.	.	.	.	.	.	.	.
16GG/JJ	.	.	16G/JJ	.	16g/JJ	.	.	.	.	.	.	.	.	.
!LO:TX:a:t=P:problem:mixed beam	!	!	!LO:TX:a:t=P:problem:mixed beam	!	!LO:TX:a:t=P:problem:mixed beam	!	!	!	!	!	!	!	!	!
8GG/L	.	.	8G/L	.	8g/L	.	.	.	.	.	.	.	.	.
8G\	x 3	.	8b\	.	(8gg\	.	.	.	.	.	.	.	.	.
8A\	6\ 3	.	8cc\	.	8ff#X\	.	.	.	.	.	.	.	.	.
8B\J	5n 3	.	8dd\J	.	8ffn\J)	.	.	.	.	.	.	.	.	.
=9	=9	=9	=9	=9	=9	=9	=9	=9	=9	=9	=9	=9	=9	=9
4c\	.	.	8ee\L	.	8ee\L	.	0.r	.	.	2.ryy	2.ryy	2.ryy	2.ryy	2.ryy
.	.	.	16gg\L	.	16gg\L	.	.	.	.	.	.	.	.	.
.	.	.	16aa\JJ	.	16aa\JJ	.	.	.	.	.	.	.	.	.
8r	.	.	8gg\L	.	8gg\L	.	.	.	.	.	.	.	.	.
8E/L	3	.	8gg\J	.	8gg\J	.	.	.	.	.	.	.	.	.
!	!	!	!	!	!LO:LB:g=original	!	!	!	!	!	!	!	!	!
8D/	3	.	16gg\LL	.	16gg\LL	.	.	.	.	.	.	.	.	.
.	.	.	16ff\	.	16ff\	.	.	.	.	.	.	.	.	.
8C/J	3	.	16ff\	.	16ff\	.	.	.	.	.	.	.	.	.
.	.	.	16ee\JJ	.	16ee\JJ	.	.	.	.	.	.	.	.	.
!	!	!	!LO:LB:g=original	!	!	!	!	!	!	!	!	!	!	!
=10	=10	=10	=10	=10	=10	=10	=10	=10	=10	=10	=10	=10	=10	=10
4BB/	3	.	8dd\L	.	8dd\L	.	.	.	.	2.ryy	2.ryy	2.ryy	2.ryy	2.ryy
.	.	.	16gg\L	.	16gg\L	.	.	.	.	.	.	.	.	.
.	.	.	16aa\JJ	.	16aa\JJ	.	.	.	.	.	.	.	.	.
8r	.	.	8gg\L	.	8gg\L	.	.	.	.	.	.	.	.	.
8GG/L	.	.	8b\J	.	8b\J	.	.	.	.	.	.	.	.	.
8AA/	.	.	16b\LL	.	16b\LL	.	.	.	.	.	.	.	.	.
.	.	.	16cc\	.	16cc\	.	.	.	.	.	.	.	.	.
8BB/J	.	.	16cc\	.	16cc\	.	.	.	.	.	.	.	.	.
.	.	.	16dd\JJ	.	16dd\JJ	.	.	.	.	.	.	.	.	.
=11	=11	=11	=11	=11	=11	=11	=11	=11	=11	=11	=11	=11	=11	=11
4C/	.	.	8ee\L	.	8ee\L	.	.	.	.	2.ryy	2.ryy	2.ryy	2.ryy	2.ryy
.	.	.	16gg\L	.	16gg\L	.	.	.	.	.	.	.	.	.
.	.	.	16aa\JJ	.	16aa\JJ	.	.	.	.	.	.	.	.	.
8r	.	.	8gg\L	.	8gg\L	.	.	.	.	.	.	.	.	.
8E/L	.	.	8gg\J	.	8gg\J	.	.	.	.	.	.	.	.	.
8D/	.	.	16gg\LL	.	16gg\LL	.	.	.	.	.	.	.	.	.
.	.	.	16ff\	.	16ff\	.	.	.	.	.	.	.	.	.
8C/J	.	.	16ff\	.	16ff\	.	.	.	.	.	.	.	.	.
.	.	.	16ee\JJ	.	16ee\JJ	.	.	.	.	.	.	.	.	.
!LO:LB:g=original	!	!	!	!	!	!	!	!	!	!	!	!	!	!
=12	=12	=12	=12	=12	=12	=12	=12	=12	=12	=12	=12	=12	=12	=12
4BB/	.	.	8dd\L	.	8dd\L	.	.	.	.	2.ryy	2.ryy	2.ryy	2.ryy	2.ryy
.	.	.	16gg\L	.	16gg\L	.	.	.	.	.	.	.	.	.
.	.	.	16aa\JJ	.	16aa\JJ	.	.	.	.	.	.	.	.	.
8r	.	.	8gg\L	.	8gg\L	.	.	.	.	.	.	.	.	.
8GG/L	.	.	8b\J	.	8b\J	.	.	.	.	.	.	.	.	.
8AA/	.	.	16b\LL	.	16b\LL	.	.	.	.	.	.	.	.	.
.	.	.	16cc\	.	16cc\	.	.	.	.	.	.	.	.	.
8BB/J	.	.	16cc\	.	16cc\	.	.	.	.	.	.	.	.	.
.	.	.	16dd\JJ	.	16dd\JJ	.	.	.	.	.	.	.	.	.
=13	=13	=13	=13	=13	=13	=13	=13	=13	=13	=13	=13	=13	=13	=13
4C/	.	.	16ee\LL	.	16ee\LL	.	0.r	.	.	2.ryy	2.ryy	2.ryy	2.ryy	2.ryy
.	.	.	16dd\	.	16dd\	.	.	.	.	.	.	.	.	.
.	.	.	16ee\	.	16ee\	.	.	.	.	.	.	.	.	.
.	.	.	16ff\JJ	.	16ff\JJ	.	.	.	.	.	.	.	.	.
!	!	!	!	!	!LO:LB:g=original	!	!	!	!	!	!	!	!	!
4E\	.	.	8gg\L	.	8gg\L	.	.	.	.	.	.	.	.	.
.	.	.	8gg\J	.	8gg\J	.	.	.	.	.	.	.	.	.
!	!	!	!LO:LB:g=original	!	!	!	!	!	!	!	!	!	!	!
4G\	.	.	16gg\LL	.	16gg\LL	.	.	.	.	.	.	.	.	.
.	.	.	16ff\	.	16ff\	.	.	.	.	.	.	.	.	.
.	.	.	16ee\	.	16ee\	.	.	.	.	.	.	.	.	.
.	.	.	16dd\JJ	.	16dd\JJ	.	.	.	.	.	.	.	.	.
=14	=14	=14	=14	=14	=14	=14	=14	=14	=14	=14	=14	=14	=14	=14
4A\	.	.	16cc\LL	.	16cc\LL	.	.	.	.	2.ryy	2.ryy	2.ryy	2.ryy	2.ryy
.	.	.	16b\	.	16b\	.	.	.	.	.	.	.	.	.
.	.	.	16cc\	.	16cc\	.	.	.	.	.	.	.	.	.
.	.	.	16dd\JJ	.	16dd\JJ	.	.	.	.	.	.	.	.	.
4c\	.	.	8ee\L	.	8ee\L	.	.	.	.	.	.	.	.	.
.	.	.	8ee\J	.	8ee\J	.	.	.	.	.	.	.	.	.
4E\	.	.	16ee\LL	.	16ee\LL	.	.	.	.	.	.	.	.	.
.	.	.	16dd\	.	16dd\	.	.	.	.	.	.	.	.	.
.	.	.	16cc\	.	16cc\	.	.	.	.	.	.	.	.	.
.	.	.	16b\JJ	.	16b\JJ	.	.	.	.	.	.	.	.	.
=15	=15	=15	=15	=15	=15	=15	=15	=15	=15	=15	=15	=15	=15	=15
4F\	6	.	16a\LL	.	16a\LL	.	.	.	.	2.ryy	2.ryy	2.ryy	2.ryy	2.ryy
.	.	.	16dd\	.	16dd\	.	.	.	.	.	.	.	.	.
.	.	.	16ff\	.	16ff\	.	.	.	.	.	.	.	.	.
.	.	.	16dd\JJ	.	16dd\JJ	.	.	.	.	.	.	.	.	.
4G\	4	.	8cc/L	.	8cc/L	.	.	.	.	.	.	.	.	.
.	.	.	8e/	.	8e/	.	.	.	.	.	.	.	.	.
4GG/	3	.	8d/	.	8d/	.	.	.	.	.	.	.	.	.
.	.	.	8b/J	.	8b/J	.	.	.	.	.	.	.	.	.
=16	=16	=16	=16	=16	=16	=16	=16	=16	=16	=16	=16	=16	=16	=16
4C/	.	.	8cc\L	.	8cc\L	.	.	.	.	2.ryy	2.ryy	2.ryy	2.ryy	2.ryy
.	.	.	8ee\J	.	8ee\J	.	.	.	.	.	.	.	.	.
4C/	.	.	4cc\	.	4cc\	.	.	.	.	.	.	.	.	.
!	!	!	!LO:TX:b:i:t=Verte	!	!LO:TX:b:i:t=Verte	!	!	!	!	!	!	!	!	!
4r	.	.	4r	.	4r	.	.	.	.	.	.	.	.	.
!	!	!	!LO:PB:g=original	!	!LO:PB:g=original	!	!	!	!	!	!	!	!	!
=17	=17	=17	=17	=17	=17	=17	=17	=17	=17	=17	=17	=17	=17	=17
!	!	!LO:DY:rj:a:t=pio&colon;	!	!LO:DY:a:t=p&colon;	!	!LO:DY:rj:a:t=p&colon;	!	!	!	!	!	!	!	!
4C/	.	p	4c/	p	4c/	p	4C/	Qui	Do-	2.ryy	2.ryy	2.ryy	2.ryy	2.ryy
4E\	.	.	4e/	.	4e/	.	4E\	.	.	.	.	.	.	.
4G\	.	.	4g/	.	4g/	.	4G\	qui	.	.	.	.	.	.
=18	=18	=18	=18	=18	=18	=18	=18	=18	=18	=18	=18	=18	=18	=18
!LO:TX:a:t=P:problem:mixed beam	!	!	!	!	!	!	!	!	!	!	!	!	!	!
8c\L	.	.	16cc\LL	.	16cc\LL	.	16c\LL	ha-	.	2.ryy	2.ryy	2.ryy	2.ryy	2.ryy
.	.	.	16dd\	.	16dd\	.	16d\JJ	.	.	.	.	.	.	.
8C/	.	.	16ee\	.	16ee\	.	16e\LL	-bi-	-mi-	.	.	.	.	.
.	.	.	16dd\JJ	.	16dd\JJ	.	16d\JJ	.	.	.	.	.	.	.
8C\	.	.	8cc/L	.	8cc/L	.	4c\	-tat	-nus	.	.	.	.	.
8C/	.	.	8g/	.	8g/	.	.	.	.	.	.	.	.	.
8C/	.	.	8e/	.	8e/	.	8r	.	.	.	.	.	.	.
8C/J	.	.	8c/J	.	8c/J	.	8G\	in	a	.	.	.	.	.
!LO:LB:g=original	!	!	!	!	!	!	!	!	!	!	!	!	!	!
=19	=19	=19	=19	=19	=19	=19	=19	=19	=19	=19	=19	=19	=19	=19
*tremolo	*	*	*	*	*	*	*	*	*	*	*	*	*	*
8C/L	6 4	.	16f/LL	.	8a/L	.	8A\L	ad-	dex-	2.ryy	2.ryy	2.ryy	2.ryy	2.ryy
.	.	.	16f/	.	.	.	.	.	.	.	.	.	.	.
8C/	.	.	16f/	.	8f/J	.	8F\J	-ju-	.	.	.	.	.	.
.	.	.	16f/JJ	.	.	.	.	.	.	.	.	.	.	.
*	*	*	*tremolo	*	*	*	*	*	*	*	*	*	*	*
8C/	.	.	16f/LL	.	8cc\L	.	4.c\	-to-	-tris	.	.	.	.	.
.	.	.	16f/	.	.	.	.	.	.	.	.	.	.	.
8C/	.	.	16f/	.	8a\	.	.	.	.	.	.	.	.	.
.	.	.	16f/JJ	.	.	.	.	.	.	.	.	.	.	.
8C/	.	.	16f/LL	.	8ff\	.	.	.	.	.	.	.	.	.
.	.	.	16f/	.	.	.	.	.	.	.	.	.	.	.
8C/J	.	.	16f/	.	8a\J	.	8A\	-ri-	.	.	.	.	.	.
.	.	.	16f/JJ	.	.	.	.	.	.	.	.	.	.	.
*Xtremolo	*	*	*	*	*	*	*	*	*	*	*	*	*	*
=20	=20	=20	=20	=20	=20	=20	=20	=20	=20	=20	=20	=20	=20	=20
8C/L	_ _	.	16f/LL	.	8a/L	.	4A\	-o	tu-	2.ryy	2.ryy	2.ryy	2.ryy	2.ryy
.	.	.	16f/	.	.	.	.	.	.	.	.	.	.	.
8C/	.	.	16f/	.	16g/L	.	.	.	.	.	.	.	.	.
.	.	.	16f/JJ	.	16a/JJ	.	.	.	.	.	.	.	.	.
8C/	5 3	.	16e/LL	.	4g/	.	4G\	.	-is	.	.	.	.	.
.	.	.	16e/	.	.	.	.	.	.	.	.	.	.	.
8C/	.	.	16e/	.	.	.	.	.	.	.	.	.	.	.
.	.	.	16e/JJ	.	.	.	.	.	.	.	.	.	.	.
!	!	!	!	!	!	!	!LO:LB:g=original	!	!	!	!	!	!	!
8C/	_ _	.	16e/LL	.	8r	.	8r	.	.	.	.	.	.	.
.	.	.	16e/	.	.	.	.	.	.	.	.	.	.	.
8C/J	x	.	16e/	.	8ee\	.	8G\	Al-	Con-	.	.	.	.	.
.	.	.	16e/JJ	.	.	.	.	.	.	.	.	.	.	.
=21	=21	=21	=21	=21	=21	=21	=21	=21	=21	=21	=21	=21	=21	=21
*tremolo	*	*	*	*	*	*	*	*	*	*	*	*	*	*
8BB/L	6 5	.	16g/LL	.	8ee\L	.	8G\L	-tis-	-fre-	2.ryy	2.ryy	2.ryy	2.ryy	2.ryy
.	.	.	16g/	.	.	.	.	.	.	.	.	.	.	.
8BB/	.	.	16g/	.	8dd\J	.	8F\J	-si-	.	.	.	.	.	.
.	.	.	16g/JJ	.	.	.	.	.	.	.	.	.	.	.
8BB/	.	.	16g/LL	.	8b\L	.	4D\	-mi	-git	.	.	.	.	.
.	.	.	16g/	.	.	.	.	.	.	.	.	.	.	.
8BB/	.	.	16g/	.	16gg\L	.	.	.	.	.	.	.	.	.
.	.	.	16g/JJ	.	16aa\JJ	.	.	.	.	.	.	.	.	.
8BB/	.	.	16g/LL	.	8gg\L	.	8r	.	.	.	.	.	.	.
.	.	.	16g/	.	.	.	.	.	.	.	.	.	.	.
*	*	*	*	*	*	*	*	*	*ij	*	*	*	*	*
8BB/J	.	.	16g/	.	8dd\J	.	8F\	Al-	Con-	.	.	.	.	.
.	.	.	16g/JJ	.	.	.	.	.	.	.	.	.	.	.
*	*	*	*Xtremolo	*	*	*	*	*	*	*	*	*	*	*
!	!	!	!LO:LB:g=original	!	!LO:LB:g=original	!	!	!	!	!	!	!	!	!
=22	=22	=22	=22	=22	=22	=22	=22	=22	=22	=22	=22	=22	=22	=22
8C/L	.	.	16g/LL	.	8dd\L	.	8F\L	-tis-	-fre-	2.ryy	2.ryy	2.ryy	2.ryy	2.ryy
.	.	.	16g/	.	.	.	.	.	.	.	.	.	.	.
8C/	.	.	16g/	.	8cc\J	.	8E\J	-si-	.	.	.	.	.	.
.	.	.	16g/JJ	.	.	.	.	.	.	.	.	.	.	.
*	*	*	*tremolo	*	*	*	*	*	*	*	*	*	*	*
8C/	.	.	16g/LL	.	8ee\L	.	4C/	-mi	-git	.	.	.	.	.
*	*	*	*	*	*	*	*	*	*Xij	*	*	*	*	*
.	.	.	16g/	.	.	.	.	.	.	.	.	.	.	.
8C/	.	.	16g/	.	16gg\L	.	.	.	.	.	.	.	.	.
.	.	.	16g/JJ	.	16aa\JJ	.	.	.	.	.	.	.	.	.
8C/	.	.	16g/LL	.	8gg\L	.	8r	.	.	.	.	.	.	.
.	.	.	16g/	.	.	.	.	.	.	.	.	.	.	.
8C/J	.	.	16g/	.	8ee\J	.	8E\	in	in	.	.	.	.	.
.	.	.	16g/JJ	.	.	.	.	.	.	.	.	.	.	.
*Xtremolo	*	*	*Xtremolo	*	*	*	*	*	*	*	*	*	*	*
=23	=23	=23	=23	=23	=23	=23	=23	=23	=23	=23	=23	=23	=23	=23
(8G\L	.	.	8g/L	.	8gg\L	.	8G\	in	di-	2.ryy	2.ryy	2.ryy	2.ryy	2.ryy
16A\L	.	.	16a/L	.	16aa\L	.	16A\LL	pro-	-e	.	.	.	.	.
16G\JJ)	.	.	16g/JJ	.	16gg\JJ	.	16G\JJ	.	.	.	.	.	.	.
!LO:TX:a:t=|	!	!	!	!	!	!	!	!	!	!	!	!	!	!
8F\L	.	.	8f/L	.	8ff\L	.	8F\	-tec-	i-	.	.	.	.	.
!LO:TX:a:t=|	!	!	!	!	!	!	!	!	!	!	!	!	!	!
8E\	.	.	8e/	.	8ee\	.	8E\	-ti-	-rae	.	.	.	.	.
!LO:TX:a:t=|	!	!	!	!	!	!	!	!	!	!	!	!	!	!
8D\	.	.	8d/	.	8dd\	.	8D\	-o-	su-	.	.	.	.	.
!LO:TX:a:t=|	!	!	!	!	!	!	!	!	!	!	!	!	!	!
8C\J	.	.	8c/J	.	8cc\J	.	8C/	-ne	-ae	.	.	.	.	.
!	!	!	!	!	!	!	!LO:LB:g=original	!	!	!	!	!	!	!
=24	=24	=24	=24	=24	=24	=24	=24	=24	=24	=24	=24	=24	=24	=24
8BB/L	.	.	8B/L	.	8b/L	.	8BB/L	De-	re-	2.ryy	2.ryy	2.ryy	2.ryy	2.ryy
16AA/L	.	.	16A/L	.	16a/L	.	16AA/L	.	.	.	.	.	.	.
16GG/JJ	.	.	16G/JJ	.	16g/JJ	.	16GG/JJ	.	.	.	.	.	.	.
!LO:TX:a:t=P:problem:mixed beam	!	!	!	!	!	!	!	!	!	!	!	!	!	!
8GG/L	.	.	4G/	.	4g/	.	4GG/	-i	-ges	.	.	.	.	.
8G\	.	.	.	.	.	.	.	.	.	.	.	.	.	.
8D\	.	.	4r	.	4r	.	4r	.	.	.	.	.	.	.
8BB\J	.	.	.	.	.	.	.	.	.	.	.	.	.	.
=25	=25	=25	=25	=25	=25	=25	=25	=25	=25	=25	=25	=25	=25	=25
*	*	*	*	*	*	*	*2\right	*	*	*	*	*	*	*
8GG/L	.	.	8g/L	.	8b\L	.	(2G\	Cae-	Iu-	2.ryy	2.ryy	2.ryy	2.ryy	2.ryy
8GG/	.	.	8g/	.	8b\	.	.	.	.	.	.	.	.	.
8GG/	.	.	8g/	.	8b\	.	.	.	.	.	.	.	.	.
8GG/J	.	.	8g/	.	8b\	.	.	.	.	.	.	.	.	.
!LO:LB:g=original	!	!	!	!	!	!	!	!	!	!	!	!	!	!
8G\L	4 2	.	8a/	.	8cc\	.	8A\)	-li	.	.	.	.	.	.
8G\J	_ _	.	8a/J	.	8cc\J	.	16G\LL	.	-di-	.	.	.	.	.
.	.	.	.	.	.	.	16A\JJ	.	.	.	.	.	.	.
=26	=26	=26	=26	=26	=26	=26	=26	=26	=26	=26	=26	=26	=26	=26
*2\right	*	*	*2\right	*	*2\right	*	*	*	*	*	*	*	*	*
*tremolo	*	*	*tremolo	*	*tremolo	*	*	*	*	*	*	*	*	*
8G\L	5 3	.	8b\L	.	8dd\L	.	4B\	Cae-	-ca-	2.ryy	2.ryy	2.ryy	2.ryy	2.ryy
8G\	.	.	8b\	.	8dd\	.	.	.	.	.	.	.	.	.
8G\	.	.	8b\	.	8dd\	.	4G\	-li	-bit	.	.	.	.	.
8G\	.	.	8b\	.	8dd\	.	.	.	.	.	.	.	.	.
8G\	.	.	8b\	.	8dd\	.	8r	.	.	.	.	.	.	.
8G\J	.	.	8b\J	.	8dd\J	.	8B\	com-	in	.	.	.	.	.
*	*	*	*Xtremolo	*	*Xtremolo	*	*	*	*	*	*	*	*	*
!	!	!	!LO:LB:g=original	!	!LO:LB:g=original	!	!	!	!	!	!	!	!	!
=27	=27	=27	=27	=27	=27	=27	=27	=27	=27	=27	=27	=27	=27	=27
8G\L	6 4	.	8cc\L	.	8ee\L	.	(2c\	.	na-	2.ryy	2.ryy	2.ryy	2.ryy	2.ryy
8G\	.	.	8cc\	.	8ee\	.	.	.	.	.	.	.	.	.
8G\	.	.	8cc\	.	8ee\	.	.	.	.	.	.	.	.	.
8G\	.	.	8cc\	.	8ee\	.	.	.	.	.	.	.	.	.
8G\	.	.	8cc\	.	8ee\	.	8e\L)	-mo-	.	.	.	.	.	.
8G\J	.	.	8cc\J	.	8ee\J	.	8c\J	.	-ti-	.	.	.	.	.
*Xtremolo	*	*	*	*	*	*	*	*	*	*	*	*	*	*
=28	=28	=28	=28	=28	=28	=28	=28	=28	=28	=28	=28	=28	=28	=28
!LO:TX:a:t=P:problem:mixed beam	!	!	!	!	!	!	!	!	!	!	!	!	!	!
8G\L	_ _	.	8cc\L	.	8ee\L	.	8c\	-ra-	-o-	2.ryy	2.ryy	2.ryy	2.ryy	2.ryy
8G\	.	.	16b\L	.	16dd\L	.	16B\LL	-bi-	-ni-	.	.	.	.	.
.	.	.	16cc\JJ	.	16ee\JJ	.	16c\JJ	.	.	.	.	.	.	.
!	!	!	!	!	!	!	!LO:LB:g=original	!	!	!	!	!	!	!
8GG/	5 3	.	4b\	.	4dd\	.	4B\	-tur	-bus	.	.	.	.	.
8GG/	.	.	.	.	.	.	.	.	.	.	.	.	.	.
8GG/	.	.	4b\	.	4dd\	.	4B\	di-	im-	.	.	.	.	.
8GG/J	.	.	.	.	.	.	.	.	.	.	.	.	.	.
=29	=29	=29	=29	=29	=29	=29	=29	=29	=29	=29	=29	=29	=29	=29
8C/L	6	.	8e/L	.	16cc\LL	.	(4.A\	.	-ple-	2.ryy	2.ryy	2.ryy	2.ryy	2.ryy
.	.	.	.	.	16b\	.	.	.	.	.	.	.	.	.
8C/	_	.	8e/	.	16cc\	.	.	.	.	.	.	.	.	.
.	.	.	.	.	16dd\JJ	.	.	.	.	.	.	.	.	.
8C/	.	.	8e/	.	4cc\	.	.	.	.	.	.	.	.	.
8C/	.	.	8e/	.	.	.	8c\)	-cet	.	.	.	.	.	.
8D/	#	.	8f/	.	8r	.	8F#X\	di-	-bit	.	.	.	.	.
8D/J	.	.	8f/J	.	8cc\	.	8A\	-cet	ru-	.	.	.	.	.
=30	=30	=30	=30	=30	=30	=30	=30	=30	=30	=30	=30	=30	=30	=30
!LO:TX:a:t=P:problem:mixed beam	!	!	!	!	!	!	!	!	!	!	!	!	!	!
8G\L	.	.	8g/L	.	4.b\	.	16G\LL	Do-	-i-	2.ryy	2.ryy	2.ryy	2.ryy	2.ryy
.	.	.	.	.	.	.	16F\	.	.	.	.	.	.	.
8G\	.	.	8d/	.	.	.	16G\	.	.	.	.	.	.	.
.	.	.	.	.	.	.	16A\JJ	-mi-	.	.	.	.	.	.
8GG/	.	.	8d/	.	.	.	4B\	-no	-nas	.	.	.	.	.
8GG/	.	.	8d/	.	8dd\L	.	.	.	.	.	.	.	.	.
8BB/	6	.	8d/	.	8g\	.	8r	.	.	.	.	.	.	.
8BB/J	.	.	8d/J	.	8b\J	.	8G\	Sus-	im-	.	.	.	.	.
=31	=31	=31	=31	=31	=31	=31	=31	=31	=31	=31	=31	=31	=31	=31
8C/L	6	.	8e/L	.	16cc\LL	.	(4.A\	-ce-	-ple-	2.ryy	2.ryy	2.ryy	2.ryy	2.ryy
.	_	.	.	.	16b\	.	.	.	.	.	.	.	.	.
8C/	.	.	8e/	.	16cc\	.	.	.	.	.	.	.	.	.
.	.	.	.	.	16dd\JJ	.	.	.	.	.	.	.	.	.
8C/	.	.	8e/	.	4cc\	.	.	.	.	.	.	.	.	.
8C/	.	.	8e/	.	.	.	8c\)	-ptor	.	.	.	.	.	.
8D/	#	.	8f/	.	8r	.	8F#X\	me-	-bit	.	.	.	.	.
8D/J	.	.	8f/J	.	8cc\	.	8A\	-us	ru-	.	.	.	.	.
!LO:LB:g=original	!	!	!LO:LB:g=original	!	!LO:LB:g=original	!	!LO:LB:g=original	!	!	!	!	!	!	!
=32	=32	=32	=32	=32	=32	=32	=32	=32	=32	=32	=32	=32	=32	=32
4G\	.	.	16g/LL	.	16b\LL	.	4G\	me-	-i-	2.ryy	2.ryy	2.ryy	2.ryy	2.ryy
.	.	.	16f#X/	.	16a\	.	.	.	.	.	.	.	.	.
.	.	.	16g/	.	16b\	.	.	.	.	.	.	.	.	.
.	.	.	16a/JJ	.	16cc\JJ	.	.	.	.	.	.	.	.	.
4GG/	.	.	8g/L	.	8b\L	.	4G\	-us	-nas	.	.	.	.	.
.	.	.	8b/	.	8dd\	.	.	.	.	.	.	.	.	.
4D\	.	.	8a/	.	8cc\	.	8r	.	.	.	.	.	.	.
.	.	.	8f#/J	.	8a\J	.	8D\	es	Con-	.	.	.	.	.
=33	=33	=33	=33	=33	=33	=33	=33	=33	=33	=33	=33	=33	=33	=33
!LO:TX:b:t=|	!	!	!	!	!	!	!	!	!	!	!	!	!	!
4GG/	.	.	4g/	.	4g/	.	4GG/	tu	.	2.ryy	2.ryy	2.ryy	2.ryy	2.ryy
!LO:TX:b:t=|	!	!	!	!	!	!	!	!	!	!	!	!	!	!
4BB/	.	.	4b\	.	4b\	.	4BB/	.	.	.	.	.	.	.
!LO:TX:a:t=|	!	!	!	!	!	!	!	!	!	!	!	!	!	!
4D\	.	.	4dd\	.	4dd\	.	4D\	re-	-quaS-	.	.	.	.	.
=34	=34	=34	=34	=34	=34	=34	=34	=34	=34	=34	=34	=34	=34	=34
!LO:TX:a:t=|	!	!	!	!	!	!	!	!	!	!	!	!	!	!
8G\L	.	.	8gg\L	.	8gg\L	.	8G\L	-fu-	-sa-	2.ryy	2.ryy	2.ryy	2.ryy	2.ryy
!LO:TX:a:t=|	!	!	!	!	!	!	!	!	!	!	!	!	!	!
8F#X\	.	.	8ff#X\	.	8ff#X\	.	8F#X\	.	.	.	.	.	.	.
!LO:TX:a:t=|	!	!	!	!	!	!	!	!	!	!	!	!	!	!
8G\	.	.	8gg\	.	8gg\	.	8G\	-gi-	.	.	.	.	.	.
!LO:TX:a:t=|	!	!	!	!	!	!	!	!	!	!	!	!	!	!
8F#\	.	.	8ff#\	.	8ff#\	.	8F#\J	.	.	.	.	.	.	.
!LO:TX:a:t=|	!	!	!	!	!	!	!	!	!	!	!	!	!	!
8E\	.	.	8ee\	.	8ee\	.	8E\L	-um	-bit	.	.	.	.	.
!LO:TX:a:t=|	!	!	!	!	!	!	!	!	!	!	!	!	!	!
8D#X\J	.	.	8dd#X\J	.	8dd#X\J	.	8D#X\J	.	.	.	.	.	.	.
=35	=35	=35	=35	=35	=35	=35	=35	=35	=35	=35	=35	=35	=35	=35
!LO:TX:a:t=|	!	!	!	!	!	!	!	!	!	!	!	!	!	!
8E\L	.	.	8ee\L	.	8ee\L	.	8E\	me-	Ca-	2.ryy	2.ryy	2.ryy	2.ryy	2.ryy
!LO:TX:a:t=|	!	!	!	!	!	!	!	!	!	!	!	!	!	!
8D#X\	.	.	8dd#X\	.	8dd#X\	.	8D\	-um	-pi-	.	.	.	.	.
!LO:TX:a:t=|	!	!	!	!	!	!	!	!	!	!	!	!	!	!
8E\	.	.	8ee\	.	8ee\	.	8E\	De-	-ta	.	.	.	.	.
!LO:TX:a:t=|	!	!	!	!	!	!	!	!	!	!	!	!	!	!
8Dn\J	.	.	8ddn\	.	8ddn\	.	8Dn\	-us	in	.	.	.	.	.
!LO:TX:a:t=|	!	!	!	!	!	!	!	!	!	!	!	!	!	!
8C/L	.	.	8cc\	.	8cc\	.	8C/L	me-	ter-	.	.	.	.	.
!LO:TX:a:t=|	!	!	!	!	!	!	!	!	!	!	!	!	!	!
8BB/J	.	.	8b\J	.	8b\J	.	8BB/J	-us	.	.	.	.	.	.
!	!	!	!	!	!	!	!LO:LB:g=original	!	!	!	!	!	!	!
=36	=36	=36	=36	=36	=36	=36	=36	=36	=36	=36	=36	=36	=36	=36
8C/L	.	.	8a/L	.	8cc\L	.	8C/	spe-	-ra	2.ryy	2.ryy	2.ryy	2.ryy	2.ryy
8C/	6	.	16cc/L	.	16ee\L	.	8c\	-ra-	mul-	.	.	.	.	.
.	.	.	16a/JJ	.	16cc\JJ	.	.	.	.	.	.	.	.	.
8D/	4	.	4g/	.	4b\	.	4d\	-bo	-to-	.	.	.	.	.
8D/	.	.	.	.	.	.	.	.	.	.	.	.	.	.
!	!	!	!	!	!LO:TX:a:t=fin	!	!	!	!	!	!	!	!	!
8DD/	#	.	4f#X/	.	4a\	.	4D\	me-	.	.	.	.	.	.
8DD/J	.	.	.	.	.	.	.	.	.	.	.	.	.	.
!	!	!	!LO:LB:g=original	!	!LO:LB:g=original	!	!	!	!	!	!	!	!	!
=37	=37	=37	=37	=37	=37	=37	=37	=37	=37	=37	=37	=37	=37	=37
!	!	!LO:DY:rj:a:t=for	!	!LO:DY:a:t=for&colon;	!	!LO:DY:a:t=for&colon;	!	!	!	!	!	!	!	!
4GG/	.	f	8g\L	f	8b\L	f	4G\	-um	-rum	2.ryy	2.ryy	2.ryy	2.ryy	2.ryy
.	.	.	16dd\L	.	16dd\L	.	.	.	.	.	.	.	.	.
.	.	.	16ee\JJ	.	16ee\JJ	.	.	.	.	.	.	.	.	.
8r	.	.	8dd\L	.	8dd\L	.	4r	.	.	.	.	.	.	.
8B\L	.	.	8dd\J	.	8dd\J	.	.	.	.	.	.	.	.	.
8A\	.	.	16dd\LL	.	16dd\LL	.	4r	.	.	.	.	.	.	.
.	.	.	16cc\	.	16cc\	.	.	.	.	.	.	.	.	.
8G\J	.	.	16cc\	.	16cc\	.	.	.	.	.	.	.	.	.
.	.	.	16b\JJ	.	16b\JJ	.	.	.	.	.	.	.	.	.
!LO:LB:g=original	!	!	!	!	!	!	!	!	!	!	!	!	!	!
=38	=38	=38	=38	=38	=38	=38	=38	=38	=38	=38	=38	=38	=38	=38
4F#X\	.	.	8a\L	.	8a\L	.	0.r	.	.	2.ryy	2.ryy	2.ryy	2.ryy	2.ryy
.	.	.	16cc\L	.	16cc\L	.	.	.	.	.	.	.	.	.
.	.	.	16ee\JJ	.	16ee\JJ	.	.	.	.	.	.	.	.	.
!	!	!	!LO:TX:a:t=P:problem:mixed beam	!	!LO:TX:a:t=P:problem:mixed beam	!	!	!	!	!	!	!	!	!
8r	.	.	8dd\L	.	8dd\L	.	.	.	.	.	.	.	.	.
8D\L	#	.	8f#X/J	.	8f#X/J	.	.	.	.	.	.	.	.	.
8E\	3	.	16f#/LL	.	16f#/LL	.	.	.	.	.	.	.	.	.
.	.	.	16g/	.	16g/	.	.	.	.	.	.	.	.	.
8F#\J	3	.	16g/	.	16g/	.	.	.	.	.	.	.	.	.
.	.	.	16a/JJ	.	16a/JJ	.	.	.	.	.	.	.	.	.
=39	=39	=39	=39	=39	=39	=39	=39	=39	=39	=39	=39	=39	=39	=39
4G\	3	.	8b\L	.	8b\L	.	.	.	.	2.ryy	2.ryy	2.ryy	2.ryy	2.ryy
.	.	.	16dd\L	.	16dd\L	.	.	.	.	.	.	.	.	.
.	.	.	16ee\JJ	.	16dd\JJ	.	.	.	.	.	.	.	.	.
8r	.	.	8dd\L	.	8dd\L	.	.	.	.	.	.	.	.	.
8B\L	.	.	8dd\J	.	8dd\J	.	.	.	.	.	.	.	.	.
8A\	.	.	16dd\LL	.	16dd\LL	.	.	.	.	.	.	.	.	.
.	.	.	16cc\	.	16cc\	.	.	.	.	.	.	.	.	.
8G\J	.	.	16cc\	.	16cc\	.	.	.	.	.	.	.	.	.
.	.	.	16b\JJ	.	16b\JJ	.	.	.	.	.	.	.	.	.
=40	=40	=40	=40	=40	=40	=40	=40	=40	=40	=40	=40	=40	=40	=40
4F#X\	.	.	8a\L	.	8a\L	.	.	.	.	2.ryy	2.ryy	2.ryy	2.ryy	2.ryy
.	.	.	16cc\L	.	16cc\L	.	.	.	.	.	.	.	.	.
.	.	.	16ee\JJ	.	16ee\JJ	.	.	.	.	.	.	.	.	.
!	!	!	!LO:TX:a:t=P:problem:mixed beam	!	!LO:TX:a:t=P:problem:mixed beam	!	!	!	!	!	!	!	!	!
8r	.	.	8dd\L	.	8dd\L	.	.	.	.	.	.	.	.	.
8D\L	.	.	8f#X/J	.	8f#X/J	.	.	.	.	.	.	.	.	.
!	!	!	!LO:DY:a:t=for&colon;	!	!	!	!	!	!	!	!	!	!	!
8E\	.	.	16f#/LL	.	16f#/LL	.	.	.	.	.	.	.	.	.
.	.	.	16g/	.	16g/	.	.	.	.	.	.	.	.	.
8F#\J	.	.	16g/	.	16g/	.	.	.	.	.	.	.	.	.
.	.	.	16a/JJ	.	16a/JJ	.	.	.	.	.	.	.	.	.
!	!	!	!	!	!LO:LB:g=original	!	!	!	!	!	!	!	!	!
=41	=41	=41	=41	=41	=41	=41	=41	=41	=41	=41	=41	=41	=41	=41
4G\	.	.	16b\LL	.	16b\LL	.	.	.	.	2.ryy	2.ryy	2.ryy	2.ryy	2.ryy
.	.	.	16a\	.	16a\	.	.	.	.	.	.	.	.	.
.	.	.	16b\	.	16b\	.	.	.	.	.	.	.	.	.
.	.	.	16cc\JJ	.	16cc\JJ	.	.	.	.	.	.	.	.	.
4B\	.	.	8dd\L	.	8dd\L	.	.	.	.	.	.	.	.	.
.	.	.	8dd\J	.	8dd\J	.	.	.	.	.	.	.	.	.
4D\	#	.	16dd\LL	.	16dd\LL	.	.	.	.	.	.	.	.	.
.	.	.	16cc\	.	16cc\	.	.	.	.	.	.	.	.	.
.	.	.	16b\	.	16b\	.	.	.	.	.	.	.	.	.
.	.	.	16a\JJ	.	16a\JJ	.	.	.	.	.	.	.	.	.
=42	=42	=42	=42	=42	=42	=42	=42	=42	=42	=42	=42	=42	=42	=42
4E\	.	.	16g/LL	.	16g/LL	.	1.r	.	.	2.ryy	2.ryy	2.ryy	2.ryy	2.ryy
.	.	.	16f#X/	.	16f#X/	.	.	.	.	.	.	.	.	.
.	.	.	16g/	.	16g/	.	.	.	.	.	.	.	.	.
.	.	.	16a/JJ	.	16a/JJ	.	.	.	.	.	.	.	.	.
4G\	.	.	8b/L	.	8b/L	.	.	.	.	.	.	.	.	.
.	.	.	8b/J	.	8b/J	.	.	.	.	.	.	.	.	.
4B\	.	.	16b/LL	.	16b/LL	.	.	.	.	.	.	.	.	.
.	.	.	16a/	.	16a/	.	.	.	.	.	.	.	.	.
.	.	.	16g/	.	16g/	.	.	.	.	.	.	.	.	.
.	.	.	16f#/JJ	.	16f#/JJ	.	.	.	.	.	.	.	.	.
=43	=43	=43	=43	=43	=43	=43	=43	=43	=43	=43	=43	=43	=43	=43
4c\	6	.	16e/LL	.	16e/LL	.	.	.	.	2.ryy	2.ryy	2.ryy	2.ryy	2.ryy
.	.	.	16a/	.	16a/	.	.	.	.	.	.	.	.	.
.	.	.	16cc/	.	16cc/	.	.	.	.	.	.	.	.	.
.	.	.	16a/JJ	.	16a/JJ	.	.	.	.	.	.	.	.	.
4d\	7	.	8g/L	.	8g/L	.	.	.	.	.	.	.	.	.
.	.	.	8b/	.	8b/	.	.	.	.	.	.	.	.	.
4D\	#	.	8f#X/	.	8f#X/	.	.	.	.	.	.	.	.	.
.	.	.	8a/J	.	8a/J	.	.	.	.	.	.	.	.	.
!	!	!	!LO:DY:a:t=for&colon;	!	!	!	!	!	!	!	!	!	!	!
=44	=44	=44	=44	=44	=44	=44	=44	=44	=44	=44	=44	=44	=44	=44
4G\	.	.	8g/L	.	8b\L	.	2.r	.	.	2.ryy	2.ryy	2.ryy	2.ryy	2.ryy
.	.	.	8b/J	.	8cc\J	.	.	.	.	.	.	.	.	.
4GG/	.	.	4g/	.	4b\	.	.	.	.	.	.	.	.	.
4r	.	.	4r	.	4r	.	.	.	.	.	.	.	.	.
!LO:LB:g=original	!	!	!	!	!LO:LB:g=original	!	!	!	!	!	!	!	!	!
=45	=45	=45	=45	=45	=45	=45	=45	=45	=45	=45	=45	=45	=45	=45
!	!	!LO:DY:rj:a:t=p&colon;	!	!LO:DY:rj:a:t=p&colon;	!	!	!	!	!	!	!	!	!	!
4GG/	.	p	4g/	p	4g/	.	(4GG/	Ec-	De	2.ryy	2.ryy	2.ryy	2.ryy	2.ryy
4BB/	.	.	4b\	.	4b\	.	4BB/)	.	.	.	.	.	.	.
4D\	.	.	4dd\	.	4dd\	.	4D\	-ce	tor-	.	.	.	.	.
=46	=46	=46	=46	=46	=46	=46	=46	=46	=46	=46	=46	=46	=46	=46
8G\L	.	.	16gg\LL	.	16gg\LL	.	16G\LL	nunc	-ren-	2.ryy	2.ryy	2.ryy	2.ryy	2.ryy
.	.	.	16aa\	.	16aa\	.	16A\	.	.	.	.	.	.	.
8G\	.	.	16bb\	.	16bb\	.	16B\	.	.	.	.	.	.	.
.	.	.	16aa\JJ	.	16aa\JJ	.	16A\JJ	.	.	.	.	.	.	.
8G\	.	.	8gg\L	.	8gg\L	.	4G\	.	-te	.	.	.	.	.
8G\	.	.	8dd\	.	8dd\	.	.	.	.	.	.	.	.	.
!	!	!	!	!	!	!	!LO:LB:g=original	!	!	!	!	!	!	!
8G\	.	.	8b\	.	8b\	.	8r	.	.	.	.	.	.	.
8G\J	.	.	8g\J	.	8g\J	.	8G\	be-	in	.	.	.	.	.
=47	=47	=47	=47	=47	=47	=47	=47	=47	=47	=47	=47	=47	=47	=47
*tremolo	*	*	*	*	*	*	*	*	*	*	*	*	*	*
8G\L	6 4	.	16cc\LL	.	8ee\L	.	8c\L	.	Vi-	2.ryy	2.ryy	2.ryy	2.ryy	2.ryy
.	.	.	16cc\	.	.	.	.	.	.	.	.	.	.	.
8G\	.	.	16cc\	.	8cc\	.	8G\J	.	.	.	.	.	.	.
.	.	.	16cc\JJ	.	.	.	.	.	.	.	.	.	.	.
*	*	*	*tremolo	*	*	*	*	*	*	*	*	*	*	*
8G\	.	.	16cc\LL	.	8gg\	.	4.e\	.	.	.	.	.	.	.
.	.	.	16cc\	.	.	.	.	.	.	.	.	.	.	.
8G\	.	.	16cc\	.	8ee\	.	.	.	.	.	.	.	.	.
.	.	.	16cc\JJ	.	.	.	.	.	.	.	.	.	.	.
8G\	.	.	16cc\LL	.	8ccc\	.	.	.	.	.	.	.	.	.
.	.	.	16cc\	.	.	.	.	.	.	.	.	.	.	.
8G\J	.	.	16cc\	.	8ee\J	.	8c\	-ne-	-a	.	.	.	.	.
.	.	.	16cc\JJ	.	.	.	.	.	.	.	.	.	.	.
*Xtremolo	*	*	*	*	*	*	*	*	*	*	*	*	*	*
=48	=48	=48	=48	=48	=48	=48	=48	=48	=48	=48	=48	=48	=48	=48
!LO:TX:a:t=P:problem:mixed beam	!	!	!	!	!	!	!	!	!	!	!	!	!	!
8G\L	_ _	.	16cc\LL	.	8ee\L	.	8c\L	-di-	bi-	2.ryy	2.ryy	2.ryy	2.ryy	2.ryy
.	.	.	16cc\	.	.	.	.	.	.	.	.	.	.	.
8G\	.	.	16cc\	.	16dd\L	.	16B\L	-ci-	.	.	.	.	.	.
.	.	.	16cc\JJ	.	16ee\JJ	.	16c\JJ	.	.	.	.	.	.	.
8GG/	5 3	.	16b\LL	.	4dd\	.	4B\	-te	-bet	.	.	.	.	.
.	.	.	16b\	.	.	.	.	.	.	.	.	.	.	.
8GG/	.	.	16b\	.	.	.	.	.	.	.	.	.	.	.
.	.	.	16b\JJ	.	.	.	.	.	.	.	.	.	.	.
8G\	.	.	16b\LL	.	8r	.	8r	.	.	.	.	.	.	.
.	.	.	16b\	.	.	.	.	.	.	.	.	.	.	.
8G\J	.	.	16b\	.	8dd\	.	8d\	Do-	pro-	.	.	.	.	.
.	.	.	16b\JJ	.	.	.	.	.	.	.	.	.	.	.
!	!	!	!LO:LB:g=original	!	!	!	!	!	!	!	!	!	!	!
=49	=49	=49	=49	=49	=49	=49	=49	=49	=49	=49	=49	=49	=49	=49
*tremolo	*	*	*Xtremolo	*	*	*	*	*	*	*	*	*	*	*
8F#X\L	6 5	.	16d/LL	.	8b/L	.	8d\	.	-pte-	2.ryy	2.ryy	2.ryy	2.ryy	2.ryy
.	.	.	16d/	.	.	.	.	.	.	.	.	.	.	.
8F#X\	.	.	16d/	.	8a/J	.	8c\	-mi-	-re-	.	.	.	.	.
.	.	.	16d/JJ	.	.	.	.	.	.	.	.	.	.	.
*	*	*	*tremolo	*	*	*	*	*	*	*	*	*	*	*
8F#X\	.	.	16d/LL	.	8f#X\L	.	4A\	-num	-a	.	.	.	.	.
.	.	.	16d/	.	.	.	.	.	.	.	.	.	.	.
8F#X\	.	.	16d/	.	16dd\L	.	.	.	.	.	.	.	.	.
.	.	.	16d/JJ	.	16ee\JJ	.	.	.	.	.	.	.	.	.
8F#X\	.	.	16d/LL	.	8dd\L	.	8r	.	.	.	.	.	.	.
.	.	.	16d/	.	.	.	.	.	.	.	.	.	.	.
*	*	*	*	*	*	*	*	*	*ij	*	*	*	*	*
8F#X\J	.	.	16d/	.	8a\J	.	8c\	Do-	pro-	.	.	.	.	.
.	.	.	16d/JJ	.	.	.	.	.	.	.	.	.	.	.
!	!	!	!	!	!LO:LB:g=original	!	!	!	!	!	!	!	!	!
=50	=50	=50	=50	=50	=50	=50	=50	=50	=50	=50	=50	=50	=50	=50
8G\L	.	.	16d/LL	.	8a/L	.	8c\	.	-pte-	2.ryy	2.ryy	2.ryy	2.ryy	2.ryy
.	.	.	16d/	.	.	.	.	.	.	.	.	.	.	.
8G\	.	.	16d/	.	8g/J	.	8B\	-mi-	-re-	.	.	.	.	.
.	.	.	16d/JJ	.	.	.	.	.	.	.	.	.	.	.
8G\	.	.	16d/LL	.	8b\L	.	4G\	-num	-a	.	.	.	.	.
*	*	*	*	*	*	*	*	*	*Xij	*	*	*	*	*
.	.	.	16d/	.	.	.	.	.	.	.	.	.	.	.
8G\	.	.	16d/	.	16dd\L	.	.	.	.	.	.	.	.	.
.	.	.	16d/JJ	.	16ee\JJ	.	.	.	.	.	.	.	.	.
!	!	!	!	!	!	!	!LO:LB:g=original	!	!	!	!	!	!	!
8G\	.	.	16d/LL	.	8dd\L	.	8r	.	.	.	.	.	.	.
.	.	.	16d/	.	.	.	.	.	.	.	.	.	.	.
8G\J	.	.	16d/	.	8dd\J	.	(8B\	om-	Ex-	.	.	.	.	.
.	.	.	16d/JJ	.	.	.	.	.	.	.	.	.	.	.
*Xtremolo	*	*	*Xtremolo	*	*	*	*	*	*	*	*	*	*	*
=51	=51	=51	=51	=51	=51	=51	=51	=51	=51	=51	=51	=51	=51	=51
!LO:TX:a:t=P:problem:mixed beam	!	!	!	!	!	!	!	!	!	!	!	!	!	!
8c\L	6	.	8e/L	.	8cc\L	.	8A\)	.	.	2.ryy	2.ryy	2.ryy	2.ryy	2.ryy
8c\	_	.	8e/	.	16dd\L	.	16B\LL	-nes	-al-	.	.	.	.	.
.	.	.	.	.	16ee\JJ	.	16c\JJ	.	.	.	.	.	.	.
8d\	7	.	8d/	.	8dd\L	.	8B\L	ser-	-ta-	.	.	.	.	.
8d\	.	.	8d/	.	8cc\	.	8A\J	.	.	.	.	.	.	.
8D/	#	.	8d/	.	8b\	.	8G\L	-vi	-bit	.	.	.	.	.
8D/J	.	.	8d/J	.	8a\J	.	8F#X\J	Do-	.	.	.	.	.	.
!LO:LB:g=original	!	!	!	!	!	!	!	!	!	!	!	!	!	!
=52	=52	=52	=52	=52	=52	=52	=52	=52	=52	=52	=52	=52	=52	=52
8G\L	.	.	4d/	.	4b\	.	4G\	-mi-	Ca-	2.ryy	2.ryy	2.ryy	2.ryy	2.ryy
16G\L	.	.	.	.	.	.	.	.	.	.	.	.	.	.
16F\JJ	.	.	.	.	.	.	.	.	.	.	.	.	.	.
8G\L	.	.	4d/	.	4b\	.	4G\	-ni	-put	.	.	.	.	.
8D\	.	.	.	.	.	.	.	.	.	.	.	.	.	.
8BB\	.	.	4r	.	4r	.	4r	.	.	.	.	.	.	.
8D\J	.	.	.	.	.	.	.	.	.	.	.	.	.	.
=53	=53	=53	=53	=53	=53	=53	=53	=53	=53	=53	=53	=53	=53	=53
!LO:TX:a:t=P:problem:mixed beam	!	!	!	!	!	!	!	!	!	!	!	!	!	!
8GG/L	3	.	8g/L	.	8dd\L	.	2B\	qui	De	2.ryy	2.ryy	2.ryy	2.ryy	2.ryy
8GG/	.	.	8g/	.	8dd\	.	.	.	.	.	.	.	.	.
8G\	_	.	8g/	.	8dd\	.	.	.	.	.	.	.	.	.
8G\	.	.	8g/	.	8dd\	.	.	.	.	.	.	.	.	.
8Fn\	.	.	8g/	.	8dd\	.	16c\LL	Sta-	.	.	.	.	.	.
.	.	.	.	.	.	.	16B\JJ	.	.	.	.	.	.	.
8F\J	x	.	8g/J	.	8dd\J	.	16A\LL	-tis	tor-	.	.	.	.	.
.	.	.	.	.	.	.	16B\JJ	in	.	.	.	.	.	.
=54	=54	=54	=54	=54	=54	=54	=54	=54	=54	=54	=54	=54	=54	=54
*tremolo	*	*	*tremolo	*	*tremolo	*	*	*	*	*	*	*	*	*
8E\L	6	.	8g/L	.	8ee\L	.	8B\L	Do-	-ren-	2.ryy	2.ryy	2.ryy	2.ryy	2.ryy
8E\	.	.	8g/	.	8ee\	.	8c\J	-mi-	.	.	.	.	.	.
8E\	.	.	8g/	.	8ee\	.	4c\	-ni	-te	.	.	.	.	.
8E\	.	.	8g/	.	8ee\	.	.	.	.	.	.	.	.	.
!	!	!	!	!	!	!	!LO:LB:g=original	!	!	!	!	!	!	!
8E\	.	.	8g/	.	8ee\	.	8e\L	Do-	in	.	.	.	.	.
8E\J	.	.	8g/J	.	8ee\J	.	8c\J	.	.	.	.	.	.	.
*Xtremolo	*	*	*Xtremolo	*	*Xtremolo	*	*	*	*	*	*	*	*	*
!	!	!	!LO:LB:g=original	!	!	!	!	!	!	!	!	!	!	!
=55	=55	=55	=55	=55	=55	=55	=55	=55	=55	=55	=55	=55	=55	=55
8F\L	7 2	.	8g/L	.	4dd\	.	8B\L	.	Vi-	2.ryy	2.ryy	2.ryy	2.ryy	2.ryy
8F\	_ _	.	8g/	.	.	.	16A\L	.	.	.	.	.	.	.
.	.	.	.	.	.	.	16B\JJ	.	.	.	.	.	.	.
8E\	6	.	8g/	.	4ee\	.	4c\	.	.	.	.	.	.	.
8E\J	.	.	8g/	.	.	.	.	.	.	.	.	.	.	.
8BB/L	6 5	.	8g/	.	4ff\	.	4d\	.	-a	.	.	.	.	.
8BB/J	.	.	8g/J	.	.	.	.	.	.	.	.	.	.	.
!	!	!	!	!	!LO:LB:g=original	!	!	!	!	!	!	!	!	!
=56	=56	=56	=56	=56	=56	=56	=56	=56	=56	=56	=56	=56	=56	=56
4C/	.	.	4g/	.	8ee\L	.	8c\L	.	bi-	2.ryy	2.ryy	2.ryy	2.ryy	2.ryy
.	.	.	.	.	16dd\L	.	16B\L	-mi-	.	.	.	.	.	.
.	.	.	.	.	16ee\JJ	.	16c\JJ	.	.	.	.	.	.	.
4GG/	.	.	4g/	.	4dd\	.	4B\	-ni	-bet	.	.	.	.	.
4BB/	.	.	8r	.	4g/	.	8r	.	.	.	.	.	.	.
.	.	.	8g/	.	.	.	8G\	in	prop-	.	.	.	.	.
=57	=57	=57	=57	=57	=57	=57	=57	=57	=57	=57	=57	=57	=57	=57
4C/	.	.	8c/L	.	8c/L	.	4C/	a-	-te-	2.ryy	2.ryy	2.ryy	2.ryy	2.ryy
.	.	.	8c/	.	8c/	.	.	.	.	.	.	.	.	.
!LO:TX:a:t=|	!	!	!	!	!	!	!	!	!	!	!	!	!	!
4E\	.	.	8e/	.	8e/	.	8E\	-tri-	-re-	.	.	.	.	.
.	.	.	8e/	.	8e/	.	8E\	-is	-a	.	.	.	.	.
!LO:TX:a:t=|	!	!	!	!	!	!	!	!	!	!	!	!	!	!
4G\	.	.	8g/	.	8g/	.	8G\	Do-	ex-	.	.	.	.	.
.	.	.	8g/J	.	8g/J	.	8G\	-mus	-al-	.	.	.	.	.
!LO:LB:g=original	!	!	!	!	!	!	!LO:LB:g=original	!	!	!	!	!	!	!
=58	=58	=58	=58	=58	=58	=58	=58	=58	=58	=58	=58	=58	=58	=58
!LO:TX:a:t=|	!	!	!	!	!	!	!	!	!	!	!	!	!	!
4c\	.	.	8cc\L	.	8cc\L	.	4c\	De-	-ta-	2.ryy	2.ryy	2.ryy	2.ryy	2.ryy
.	.	.	16ee\L	.	16ee\L	.	.	.	.	.	.	.	.	.
.	.	.	16cc\JJ	.	16cc\JJ	.	.	.	.	.	.	.	.	.
!LO:TX:a:t=|	!	!	!	!	!	!	!	!	!	!	!	!	!	!
4C/	.	.	4c/	.	4c/	.	4C/	-i	-bit	.	.	.	.	.
!LO:TX:a:t=|	!	!	!	!	!	!	!	!	!	!	!	!	!	!
4E\	.	.	4e/	.	4e/	.	8E\	nos-	Ex-	.	.	.	.	.
.	.	.	.	.	.	.	8E\	-tri.	-al-	.	.	.	.	.
=59	=59	=59	=59	=59	=59	=59	=59	=59	=59	=59	=59	=59	=59	=59
!LO:TX:a:t=|	!	!	!	!	!	!	!	!	!	!	!	!	!	!
8F\L	.	.	8f/L	.	8f/L	.	8F\L	glo-	-ta-	2.ryy	2.ryy	2.ryy	2.ryy	2.ryy
!LO:TX:a:t=|	!	!	!	!	!	!	!	!	!	!	!	!	!	!
8E\	.	.	8e/	.	8e/	.	8E\	.	.	.	.	.	.	.
!LO:TX:a:t=|	!	!	!	!	!	!	!	!	!	!	!	!	!	!
8D\	.	.	8d/	.	8d/	.	8D\	-ri-	.	.	.	.	.	.
!LO:TX:a:t=|	!	!	!	!	!	!	!	!	!	!	!	!	!	!
8E\	.	.	8e/	.	8e/	.	8E\J	.	.	.	.	.	.	.
!LO:TX:a:t=|	!	!	!	!	!	!	!	!	!	!	!	!	!	!
8F\	.	.	8f/	.	8f/	.	8F\L	-a	-bit	.	.	.	.	.
!LO:TX:a:t=|	!	!	!	!	!	!	!	!	!	!	!	!	!	!
8G\J	.	.	8g/J	.	8g/J	.	8G\J	.	.	.	.	.	.	.
!	!	!	!LO:LB:g=original	!	!	!	!	!	!	!	!	!	!	!
=60	=60	=60	=60	=60	=60	=60	=60	=60	=60	=60	=60	=60	=60	=60
!LO:TX:a:t=|	!	!	!	!	!	!	!	!	!	!	!	!	!	!
8E\L	.	.	8e/L	.	8e/L	.	8E\L	Pa-	Ca-	2.ryy	2.ryy	2.ryy	2.ryy	2.ryy
!LO:TX:a:t=|	!	!	!	!	!	!	!	!	!	!	!	!	!	!
8D\J	.	.	8d/J	.	8d/J	.	8D\J	.	.	.	.	.	.	.
!LO:TX:a:t=|	!	!	!	!	!	!	!	!	!	!	!	!	!	!
8C\L	.	.	4c/	.	4c/	.	4C/	-tri	-put	.	.	.	.	.
8c\	.	.	.	.	.	.	.	.	.	.	.	.	.	.
8G\	.	.	4r	.	4r	.	4r	.	.	.	.	.	.	.
8E\J	.	.	.	.	.	.	.	.	.	.	.	.	.	.
=61	=61	=61	=61	=61	=61	=61	=61	=61	=61	=61	=61	=61	=61	=61
8C/L	.	.	8cc\L	.	8cc\L	.	2C/	glo-	De	2.ryy	2.ryy	2.ryy	2.ryy	2.ryy
8C/	.	.	8cc\	.	8ee\	.	.	.	.	.	.	.	.	.
8C/	.	.	8cc\	.	8ee\	.	.	.	.	.	.	.	.	.
8C/	.	.	8cc\	.	8ee\J	.	.	.	.	.	.	.	.	.
!	!	!	!	!	!LO:LB:g=original	!	!	!	!	!	!	!	!	!
8C/	4 2	.	8dd\	.	8ff\L	.	16E\LL	-ri-	.	.	.	.	.	.
.	.	.	.	.	.	.	16D\JJ	.	.	.	.	.	.	.
8C/J	.	.	8dd\J	.	8ff\J	.	16C\LL	-a	tor-	.	.	.	.	.
.	.	.	.	.	.	.	16D\JJ	.	.	.	.	.	.	.
!	!	!	!	!	!	!	!LO:LB:g=original	!	!	!	!	!	!	!
=62	=62	=62	=62	=62	=62	=62	=62	=62	=62	=62	=62	=62	=62	=62
*tremolo	*	*	*tremolo	*	*tremolo	*	*	*	*	*	*	*	*	*
.	5 3	.	.	.	.	.	.	.	.	.	.	.	.	.
8C/L	.	.	8ee\L	.	8gg\L	.	4E\	Pa-	-ren-	2.ryy	2.ryy	2.ryy	2.ryy	2.ryy
8C/	.	.	8ee\	.	8gg\	.	.	.	.	.	.	.	.	.
8C/	.	.	8ee\	.	8gg\	.	4C/	-tri	-te	.	.	.	.	.
8C/	_ _	.	8ee\	.	8gg\	.	.	.	.	.	.	.	.	.
8C/	.	.	8ee\	.	8gg\	.	8r	.	.	.	.	.	.	.
!	!	!	!	!	!	!	!LO:SIC:s:v=et	!	!	!	!	!	!	!
8C/J	.	.	8ee\J	.	8gg\J	.	8E\	e	in	.	.	.	.	.
=63	=63	=63	=63	=63	=63	=63	=63	=63	=63	=63	=63	=63	=63	=63
8C/L	6 4	.	8ff\L	.	8aa\L	.	2F\	fi-	Vi-	2.ryy	2.ryy	2.ryy	2.ryy	2.ryy
8C/	.	.	8ff\	.	8aa\	.	.	.	.	.	.	.	.	.
8C/	.	.	8ff\	.	8aa\	.	.	.	.	.	.	.	.	.
8C/	.	.	8ff\	.	8aa\	.	.	.	.	.	.	.	.	.
8C/	_ _	.	8ff\	.	8aa\	.	8A\L	.	-a	.	.	.	.	.
8C/J	.	.	8ff\J	.	8aa\J	.	8F\J	.	.	.	.	.	.	.
*Xtremolo	*	*	*Xtremolo	*	*Xtremolo	*	*	*	*	*	*	*	*	*
!LO:LB:g=original	!	!	!	!	!	!	!	!	!	!	!	!	!	!
=64	=64	=64	=64	=64	=64	=64	=64	=64	=64	=64	=64	=64	=64	=64
8C/L	4	.	8ff\L	.	8aa\L	.	8F\L	.	bi-	2.ryy	2.ryy	2.ryy	2.ryy	2.ryy
8C/	3	.	16ee\L	.	16gg\L	.	16E\L	-li-	.	.	.	.	.	.
.	.	.	16ff\JJ	.	16aa\JJ	.	16F\JJ	.	.	.	.	.	.	.
8CC/	.	.	4ee\	.	4gg\	.	4E\	-o	-bet	.	.	.	.	.
8CC/	.	.	.	.	.	.	.	.	.	.	.	.	.	.
8C/	.	.	4ee\	.	4gg\	.	8r	.	.	.	.	.	.	.
8C/J	.	.	.	.	.	.	8E\	et	in	.	.	.	.	.
=65	=65	=65	=65	=65	=65	=65	=65	=65	=65	=65	=65	=65	=65	=65
8F\L	6	.	8a/L	.	16ff\LL	.	(4.D\	.	.	2.ryy	2.ryy	2.ryy	2.ryy	2.ryy
.	.	.	.	.	16ee\	.	.	.	.	.	.	.	.	.
8F\	_	.	8a/	.	16ff\	.	.	.	.	.	.	.	.	.
.	.	.	.	.	16gg\JJ	.	.	.	.	.	.	.	.	.
8F\	.	.	8a/	.	4ff\	.	.	.	.	.	.	.	.	.
8F\	x	.	8a/	.	.	.	8F\)	spi-	.	.	.	.	.	.
8G\	3	.	8b/	.	8r	.	8BB/L	.	vi-	.	.	.	.	.
8G\J	_	.	8b/J	.	8ff\	.	8D/J	.	-a	.	.	.	.	.
!	!	!	!LO:LB:g=original	!	!	!	!LO:LB:g=original	!	!	!	!	!	!	!
=66	=66	=66	=66	=66	=66	=66	=66	=66	=66	=66	=66	=66	=66	=66
8c\L	x	.	8g/L	.	4.ee\	.	16C/LL	-ri-	bi-	2.ryy	2.ryy	2.ryy	2.ryy	2.ryy
.	.	.	.	.	.	.	16BB/	.	.	.	.	.	.	.
8c\	.	.	8g/	.	.	.	16C/	-tu-	.	.	.	.	.	.
.	.	.	.	.	.	.	16D/JJ	.	.	.	.	.	.	.
8c\	.	.	8g/	.	.	.	4E\	-i	-bet	.	.	.	.	.
8c\	.	.	8g/	.	8gg\L	.	.	.	.	.	.	.	.	.
8E\	6	.	8g/	.	8cc\	.	8r	.	.	.	.	.	.	.
8E\J	.	.	8g/J	.	8ee\J	.	8C/	San-	in	.	.	.	.	.
!	!	!	!	!	!LO:LB:g=original	!	!	!	!	!	!	!	!	!
=67	=67	=67	=67	=67	=67	=67	=67	=67	=67	=67	=67	=67	=67	=67
8F\L	6	.	8a/L	.	16ff\LL	.	(4.D\	.	vi-	2.ryy	2.ryy	2.ryy	2.ryy	2.ryy
.	_	.	.	.	16ee\	.	.	.	.	.	.	.	.	.
8F\	.	.	8a/	.	16ff\	.	.	.	.	.	.	.	.	.
.	.	.	.	.	16gg\JJ	.	.	.	.	.	.	.	.	.
8F\	.	.	8a/	.	4ff\	.	.	.	.	.	.	.	.	.
8F\	.	.	8a/	.	.	.	8F\)	.	.	.	.	.	.	.
8G\	3	.	8b/	.	8r	.	8BB/L	.	-a	.	.	.	.	.
8G\J	.	.	8b/J	.	8ff\	.	8D/J	.	.	.	.	.	.	.
=68	=68	=68	=68	=68	=68	=68	=68	=68	=68	=68	=68	=68	=68	=68
4c\	.	.	16cc\LL	.	16ee\LL	.	4C/	.	bi-	2.ryy	2.ryy	2.ryy	2.ryy	2.ryy
.	.	.	16b\	.	16dd\	.	.	.	.	.	.	.	.	.
.	.	.	16cc\	.	16ee\	.	.	.	.	.	.	.	.	.
.	.	.	16dd\JJ	.	16ff\JJ	.	.	.	.	.	.	.	.	.
4C/	.	.	8cc\L	.	8ee\L	.	4C/	-cto	-bet	.	.	.	.	.
.	.	.	8ee\	.	8gg\	.	.	.	.	.	.	.	.	.
!LO:TX:b:i:t=Verte	!	!	!	!	!	!	!	!	!	!	!	!	!	!
4G\	.	.	8dd\	.	8ff\	.	8r	.	.	.	.	.	.	.
.	.	.	8b\J	.	8dd\J	.	8G\	si-	pro-	.	.	.	.	.
!LO:PB:g=original	!	!	!	!	!	!	!	!	!	!	!	!	!	!
=69	=69	=69	=69	=69	=69	=69	=69	=69	=69	=69	=69	=69	=69	=69
4C/	.	.	4cc\	.	4cc\	.	4C/	.	-pte-	2.ryy	2.ryy	2.ryy	2.ryy	2.ryy
!LO:TX:a:t=|	!	!	!	!	!	!	!	!	!	!	!	!	!	!
4E\	.	.	4e/	.	4e/	.	8E\	.	-re-	.	.	.	.	.
.	.	.	.	.	.	.	8E\	-cut	-a	.	.	.	.	.
!	!	!	!	!	!	!	!LO:LB:g=original	!	!	!	!	!	!	!
!LO:TX:a:t=|	!	!	!	!	!	!	!	!	!	!	!	!	!	!
4G\	.	.	4g/	.	4g/	.	8G\	e-	ex-	.	.	.	.	.
.	.	.	.	.	.	.	8G\	-rat	-al-	.	.	.	.	.
=70	=70	=70	=70	=70	=70	=70	=70	=70	=70	=70	=70	=70	=70	=70
!LO:TX:a:t=|	!	!	!	!	!	!	!	!	!	!	!	!	!	!
8c\L	.	.	8cc\L	.	8cc\L	.	8c\L	in	-ta-	2.ryy	2.ryy	2.ryy	2.ryy	2.ryy
!LO:TX:a:t=|	!	!	!	!	!	!	!	!	!	!	!	!	!	!
8B\	.	.	8b\	.	8b\	.	8B\	.	.	.	.	.	.	.
!LO:TX:a:t=|	!	!	!	!	!	!	!	!	!	!	!	!	!	!
8c\	.	.	8cc\	.	8cc\	.	8c\	.	.	.	.	.	.	.
!LO:TX:a:t=|	!	!	!	!	!	!	!	!	!	!	!	!	!	!
8B\	.	.	8b\J	.	8b\J	.	8B\	.	.	.	.	.	.	.
!LO:TX:a:t=|	!	!	!	!	!	!	!	!	!	!	!	!	!	!
8A\	.	.	8a/L	.	8a/L	.	8A\	prin-	.	.	.	.	.	.
!LO:TX:a:t=|	!	!	!	!	!	!	!	!	!	!	!	!	!	!
8G#X\J	.	.	8g#X/J	.	8g#X/J	.	8G#X\J	.	.	.	.	.	.	.
!	!	!	!LO:LB:g=original	!	!	!	!	!	!	!	!	!	!	!
=71	=71	=71	=71	=71	=71	=71	=71	=71	=71	=71	=71	=71	=71	=71
!LO:TX:a:t=|	!	!	!	!	!	!	!	!	!	!	!	!	!	!
8A\L	.	.	8a/L	.	8a/L	.	8A\L	-ci-	.	2.ryy	2.ryy	2.ryy	2.ryy	2.ryy
!LO:TX:a:t=|	!	!	!	!	!	!	!	!	!	!	!	!	!	!
8G\	.	.	8g/	.	8g/	.	8G#X\	.	.	.	.	.	.	.
!LO:TX:a:t=|	!	!	!	!	!	!	!	!	!	!	!	!	!	!
8A\	.	.	8a/	.	8a/	.	8A\	.	.	.	.	.	.	.
!LO:TX:a:t=|	!	!	!	!	!	!	!	!	!	!	!	!	!	!
8G\	.	.	8gn/	.	8gn/	.	8Gn\	.	.	.	.	.	.	.
!LO:TX:a:t=|	!	!	!	!	!	!	!	!	!	!	!	!	!	!
8F\	.	.	8f/	.	8f/	.	8F\	pio	.	.	.	.	.	.
!LO:TX:a:t=|	!	!	!	!	!	!	!	!	!	!	!	!	!	!
8E\J	.	.	8e/J	.	8e/J	.	8E\J	.	.	.	.	.	.	.
!	!	!	!	!	!LO:LB:g=original	!	!LO:PB:g=original	!	!	!	!	!	!	!
=72	=72	=72	=72	=72	=72	=72	=72	=72	=72	=72	=72	=72	=72	=72
!	!	!	!	!	!LO:TX:a:t=P:problem:mixed beam	!	!	!	!	!	!	!	!	!
4F\	6	.	8f/L	.	8f/L	.	8F\	A-	.	2.ryy	2.ryy	2.ryy	2.ryy	2.ryy
.	.	.	16a/L	.	8dd\J	.	8F\	-men	-bit	.	.	.	.	.
.	.	.	16f/JJ	.	.	.	.	.	.	.	.	.	.	.
4G\	4	.	4e/	.	4cc\	.	4G\	a-	Ca-	.	.	.	.	.
4GG/	3	.	4d/	.	4b\	.	4GG/	.	.	.	.	.	.	.
=73	=73	=73	=73	=73	=73	=73	=73	=73	=73	=73	=73	=73	=73	=73
!	!	!LO:DY:rj:a:t=f&colon;	!LO:TX:a:t=P:problem:mixed beam	!LO:DY:rj:a:t=for	!	!LO:DY:A:t=for&colon;	!	!	!	!	!	!	!	!
4C/	.	f	8e/L	f	8cc\L	f	4C/	-men	-put	2.ryy	2.ryy	2.ryy	2.ryy	2.ryy
.	.	.	16gg\L	.	16gg\L	.	.	.	.	.	.	.	.	.
.	.	.	16aa\JJ	.	16aa\JJ	.	.	.	.	.	.	.	.	.
8r	.	.	8gg\L	.	8gg\L	.	4r	.	.	.	.	.	.	.
8E\L	.	.	8gg\J	.	8gg\J	.	.	.	.	.	.	.	.	.
8D\	.	.	16gg\LL	.	16gg\LL	.	4r	.	.	.	.	.	.	.
.	.	.	16ff\	.	16ff\	.	.	.	.	.	.	.	.	.
8C\J	.	.	16ff\	.	16ff\	.	.	.	.	.	.	.	.	.
.	.	.	16ee\JJ	.	16ee\JJ	.	.	.	.	.	.	.	.	.
=74	=74	=74	=74	=74	=74	=74	=74	=74	=74	=74	=74	=74	=74	=74
4BB/	.	.	8dd\L	.	8dd\L	.	0.r	.	.	2.ryy	2.ryy	2.ryy	2.ryy	2.ryy
.	.	.	16gg\L	.	16gg\L	.	.	.	.	.	.	.	.	.
.	.	.	16aa\JJ	.	16aa\JJ	.	.	.	.	.	.	.	.	.
8r	.	.	8gg\L	.	8gg\L	.	.	.	.	.	.	.	.	.
8GG/L	.	.	8b\J	.	8b\J	.	.	.	.	.	.	.	.	.
8AA/	.	.	16b\LL	.	16b\LL	.	.	.	.	.	.	.	.	.
.	.	.	16cc\	.	16cc\	.	.	.	.	.	.	.	.	.
8BB/J	.	.	16cc\	.	16cc\	.	.	.	.	.	.	.	.	.
.	.	.	16dd\JJ	.	16dd\JJ	.	.	.	.	.	.	.	.	.
!LO:LB:g=original	!	!	!	!	!	!	!	!	!	!	!	!	!	!
=75	=75	=75	=75	=75	=75	=75	=75	=75	=75	=75	=75	=75	=75	=75
4C/	.	.	8ee\L	.	8ee\L	.	.	.	.	2.ryy	2.ryy	2.ryy	2.ryy	2.ryy
.	.	.	16gg\L	.	16gg\L	.	.	.	.	.	.	.	.	.
.	.	.	16aa\JJ	.	16aa\JJ	.	.	.	.	.	.	.	.	.
!	!	!	!LO:LB:g=original	!	!	!	!	!	!	!	!	!	!	!
8r	.	.	8gg\L	.	8gg\L	.	.	.	.	.	.	.	.	.
8E/L	.	.	8gg\J	.	8gg\J	.	.	.	.	.	.	.	.	.
8D/	.	.	16gg\LL	.	16gg\LL	.	.	.	.	.	.	.	.	.
.	.	.	16ff\	.	16ff\	.	.	.	.	.	.	.	.	.
8C/J	.	.	16ff\	.	16ff\	.	.	.	.	.	.	.	.	.
.	.	.	16ee\JJ	.	16ee\JJ	.	.	.	.	.	.	.	.	.
=76	=76	=76	=76	=76	=76	=76	=76	=76	=76	=76	=76	=76	=76	=76
4BB/	.	.	8dd\L	.	8dd\L	.	.	.	.	2.ryy	2.ryy	2.ryy	2.ryy	2.ryy
.	.	.	16gg\L	.	16gg\L	.	.	.	.	.	.	.	.	.
.	.	.	16aa\JJ	.	16aa\JJ	.	.	.	.	.	.	.	.	.
8r	.	.	8gg\L	.	8gg\L	.	.	.	.	.	.	.	.	.
8GG/L	.	.	8b\J	.	8b\J	.	.	.	.	.	.	.	.	.
!	!	!	!	!	!LO:LB:g=original	!	!	!	!	!	!	!	!	!
8AA/	.	.	16b\LL	.	16b\LL	.	.	.	.	.	.	.	.	.
.	.	.	16cc\	.	16cc\	.	.	.	.	.	.	.	.	.
8BB/J	.	.	16cc\	.	16cc\	.	.	.	.	.	.	.	.	.
.	.	.	16dd\JJ	.	16dd\JJ	.	.	.	.	.	.	.	.	.
=77	=77	=77	=77	=77	=77	=77	=77	=77	=77	=77	=77	=77	=77	=77
4C/	.	.	16ee\LL	.	16ee\LL	.	.	.	.	2.ryy	2.ryy	2.ryy	2.ryy	2.ryy
.	.	.	16dd\	.	16dd\	.	.	.	.	.	.	.	.	.
.	.	.	16ee\	.	16ee\	.	.	.	.	.	.	.	.	.
.	.	.	16ff\JJ	.	16ff\JJ	.	.	.	.	.	.	.	.	.
4E\	.	.	8gg\L	.	8gg\L	.	.	.	.	.	.	.	.	.
.	.	.	8gg\J	.	8gg\J	.	.	.	.	.	.	.	.	.
4G\	.	.	16gg\LL	.	16gg\LL	.	.	.	.	.	.	.	.	.
.	.	.	16ff\	.	16ff\	.	.	.	.	.	.	.	.	.
.	.	.	16ee\	.	16ee\	.	.	.	.	.	.	.	.	.
.	.	.	16dd\JJ	.	16dd\JJ	.	.	.	.	.	.	.	.	.
!	!	!	!LO:PB:g=original	!	!	!	!	!	!	!	!	!	!	!
=78	=78	=78	=78	=78	=78	=78	=78	=78	=78	=78	=78	=78	=78	=78
4A\	.	.	16cc\LL	.	16cc\LL	.	1.r	.	.	2.ryy	2.ryy	2.ryy	2.ryy	2.ryy
.	.	.	16b\	.	16b\	.	.	.	.	.	.	.	.	.
.	.	.	16cc\	.	16cc\	.	.	.	.	.	.	.	.	.
.	.	.	16dd\JJ	.	16dd\JJ	.	.	.	.	.	.	.	.	.
4c\	.	.	8ee\L	.	8ee\L	.	.	.	.	.	.	.	.	.
.	.	.	8ee\J	.	8ee\J	.	.	.	.	.	.	.	.	.
4E\	.	.	16ee\LL	.	16ee\LL	.	.	.	.	.	.	.	.	.
.	.	.	16dd\	.	16dd\	.	.	.	.	.	.	.	.	.
.	.	.	16cc\	.	16cc\	.	.	.	.	.	.	.	.	.
.	.	.	16b\JJ	.	16b\JJ	.	.	.	.	.	.	.	.	.
=79	=79	=79	=79	=79	=79	=79	=79	=79	=79	=79	=79	=79	=79	=79
4F\	6	.	16a\LL	.	16a\LL	.	.	.	.	2.ryy	2.ryy	2.ryy	2.ryy	2.ryy
.	.	.	16dd\	.	16dd\	.	.	.	.	.	.	.	.	.
.	.	.	16ff\	.	16ff\	.	.	.	.	.	.	.	.	.
.	.	.	16dd\JJ	.	16dd\JJ	.	.	.	.	.	.	.	.	.
4G\	4	.	8cc/L	.	8cc/L	.	.	.	.	.	.	.	.	.
.	.	.	8e/	.	8e/	.	.	.	.	.	.	.	.	.
4GG/	3	.	8d/	.	8d/	.	.	.	.	.	.	.	.	.
.	.	.	8b/J	.	8b/J	.	.	.	.	.	.	.	.	.
=80	=80	=80	=80	=80	=80	=80	=80	=80	=80	=80	=80	=80	=80	=80
4C/	.	.	8cc\L	.	8cc\L	.	2.r	.	.	2.ryy	2.ryy	2.ryy	2.ryy	2.ryy
.	.	.	8ee\J	.	8ee\J	.	.	.	.	.	.	.	.	.
4C/	.	.	4cc\	.	4cc\	.	.	.	.	.	.	.	.	.
!	!	!	!	!	!LO:TX:b:i:t=Verte	!	!	!	!	!	!	!	!	!
4r	.	.	4r	.	4r	.	.	.	.	.	.	.	.	.
==	==	==	==	==	==	==	==	==	==	==	==	==	==	==
*-	*-	*-	*-	*-	*-	*-	*-	*-	*-	*-	*-	*-	*-	*-
!!!system-decoration: [(s1,s2)][(s3,s4,s5,s6)][(s7,s8)][(s9)]
!!!ENC:Anastazja Marusiak
!!!END:2020-07-14
!!!ENC: Leszek Kubiak
!!!END: 2022-01-14
